X: 115
T:Lady Menzies of Castle Menzies
B:William Marshall Volume 2nd Of A Collection Of Scottish Melodies (1845)
C:William Marshall
L:1/8
M:6/8
O:Scotland
R:Jig
Z:Clark Bernst + Richard Robinson
%%Page:12 - 2
F:http://richardrobinson.tunebook.org.uk/tune/3958
%%TBL:{"version":1,"type":"tune","id":"3958"}
K:C
%%staves {1 2}
V:1
G |: \
c3  {dcBc}edc | BAG {^c}d3 | c3~ edc | {eg}fef agf | 
e2c {d}cBc    | ABc {^c}d3 | GAB cde | fed gfe ::
f2A agf | {f}e>dc {^f}g3 | E2g {f}e>dc | a2[Ff] [Aa][Gg][Ff] | 
(G,C)!wedge!E (Gc)!wedge!e | FAd ~f2a | gfe fdB | GAB cde :|
V:2 middle=d clef=bass
z |: \
cgc' cgc' & C,3 C,3 | dgb dgb & D,3 D,3 | \
cgc' cgc' & C,3 C,3 | fac' fac' & F,3 F,3 | \
cgc' cgc' & C,3 C,3 | fac' fgb & F,3 F,3 | \
fgb egc' | dgb cgc' :: \
f[ac'][ac'] f[ac'][ac'] & F,3 F,3 | c[gc'][gc'] c[gc'][gc'] & C,3 C,3 | \
 c[gc'][gc'] c[gc'][gc'] & C,3 C,3 | f[ac'][ac'] f[ac'][ac'] & F,3 F,3 | \
c[eg][eg] e[gc'][gc'] & C,3E,3 | f[bd'][bd'] f[bd'][bd'] | \
g[c'e'][c'e'] g[d'f'][d'f'] & G,3 G,3 | g[d'f'][d'f'] [c'e'g']2[c'e'g'] :|

